src/pos-icons/format-paint.svg

<svg height="24" viewBox="0 0 24 24" width="24" xmlns="http://www.w3.org/2000/svg"><path d="m18 4v-1a1 1 0 0 0 -1-1h-12a1 1 0 0 0 -1 1v4a1 1 0 0 0 1 1h12a1 1 0 0 0 1-1v-1h1v4h-10v11a1 1 0 0 0 1 1h2a1 1 0 0 0 1-1v-9h8v-8z"/></svg>

<?xml version="1.0" encoding="UTF-8"?><!DOCTYPE svg PUBLIC "-//W3C//DTD SVG 1.1//EN" "http://www.w3.org/Graphics/SVG/1.1/DTD/svg11.dtd"><svg xmlns="http://www.w3.org/2000/svg" xmlns:xlink="http://www.w3.org/1999/xlink" version="1.1" id="mdi-format-paint" width="24" height="24" viewBox="0 0 24 24"><path d="M18,4V3A1,1 0 0,0 17,2H5A1,1 0 0,0 4,3V7A1,1 0 0,0 5,8H17A1,1 0 0,0 18,7V6H19V10H9V21A1,1 0 0,0 10,22H12A1,1 0 0,0 13,21V12H21V4H18Z" /></svg>
